icons/production/js.svg

<?xml version="1.0" encoding="UTF-8" standalone="no"?>
<svg width="24px" height="24px" viewBox="0 0 24 24" version="1.1" xmlns="http://www.w3.org/2000/svg">
<!--Generator: Sketch 3.8.3 (29802) - http://www.bohemiancoding.com/sketch-->
    <title>
        js
    </title>
    <desc>
        Created with Sketch.
    </desc>
    <g id="Page-1" stroke="none" stroke-width="1" fill="none" fill-rule="evenodd">
        <path d="M2,2 L2,22 L22,22 L22,2 L2,2 L2,2 Z M12.4383947,19.1088957 C12.1437883,19.7076943 11.5807771,20.1013548 10.9289366,20.2911554 C9.92689162,20.5212168 8.96894172,20.3902096 8.25575153,19.9620399 C7.77837423,19.6693507 7.40580266,19.2188139 7.15337423,18.6998978 C7.66078732,18.389954 8.16692229,18.078093 8.67433538,17.7681493 C8.68775562,17.7739008 8.7273773,17.8461145 8.78105828,17.9394172 C8.97469325,18.2646984 9.14212679,18.4947597 9.47124233,18.6558027 C9.79460634,18.7657209 10.5033231,18.8366564 10.7774796,18.2678937 C10.9449131,17.9790389 10.8912321,17.0306748 10.8912321,16.0024284 C10.8912321,14.3862474 10.8989008,12.796907 10.8989008,11.1609151 L12.7694274,11.1609151 C12.7694274,12.8787065 12.7790133,14.6009714 12.7694274,16.3162065 C12.7732618,17.3674591 12.8646472,18.3228528 12.4383947,19.1082566 L12.4383947,19.1088957 Z M20.1991309,18.5803937 C19.5492076,20.8049591 15.9231851,20.8771728 14.4750767,19.4073364 C14.1689673,19.0616053 13.9772495,18.8807515 13.7944785,18.4813395 C14.564545,18.0384714 14.564545,18.0384714 15.3135225,17.6051892 C15.7206033,18.2308282 16.0970092,18.5746421 16.773773,18.7152352 C17.6921012,18.8270706 18.616181,18.5120143 18.4091258,17.5368098 C18.196319,16.7399029 16.5290133,16.5462679 15.394044,15.6944018 C14.24182,14.920501 13.972137,13.0403885 14.9185838,11.9661299 C15.2342791,11.568635 15.7723671,11.2721115 16.3366564,11.1296012 C16.5322086,11.1046779 16.730317,11.0784765 16.9258691,11.0535532 C18.0570041,11.030547 18.7644427,11.3289877 19.2833589,11.9092536 C19.4277863,12.0555982 19.5453732,12.2134458 19.7664877,12.5559816 C19.1638548,12.9400562 19.165772,12.9362219 18.3024029,13.4953988 C18.1177147,13.0979039 17.8122444,12.8486708 17.4888804,12.7406697 C16.9872188,12.5885736 16.353911,12.75409 16.2229039,13.2845092 C16.1775307,13.4481084 16.1871166,13.6002045 16.2593303,13.8698875 C16.4625511,14.3338446 17.1450665,14.5351483 17.7572853,14.8163344 C19.5198108,15.5314417 20.1147751,16.2970348 20.2611196,17.2096115 C20.4017127,17.9950153 20.2266104,18.5043456 20.200409,18.5803937 L20.1991309,18.5803937 Z" id="js" fill="#000"/>
    </g>
</svg>

<svg xmlns="http://www.w3.org/2000/svg" viewBox="0 0 24 24">
    <path fill-rule="evenodd" d="M2 2v20h20V2H2zm10.438 17.109c-.294.599-.857.992-1.51 1.182-1.001.23-1.96.1-2.672-.329-.478-.293-.85-.743-1.103-1.262.508-.31 1.014-.622 1.521-.932.014.006.053.078.107.171.194.326.361.556.69.717.324.11 1.032.18 1.306-.388.168-.289.114-1.237.114-2.266 0-1.616.008-3.205.008-4.841h1.87c0 1.718.01 3.44 0 5.155.004 1.051.096 2.007-.33 2.792zm7.761-.529c-.65 2.225-4.276 2.297-5.724.827-.306-.345-.498-.526-.68-.926l1.519-.876c.407.626.783.97 1.46 1.11.918.112 1.842-.203 1.635-1.178-.213-.797-1.88-.99-3.015-1.843-1.152-.773-1.422-2.654-.475-3.728.315-.397.853-.694 1.418-.836.195-.025.393-.052.589-.076 1.131-.023 1.838.275 2.357.855.145.147.262.304.483.647-.602.384-.6.38-1.464.94a1.391 1.391 0 0 0-.813-.755c-.502-.152-1.135.013-1.266.544-.045.163-.036.315.036.585.204.464.886.665 1.498.946 1.763.715 2.358 1.481 2.504 2.394.14.785-.034 1.294-.06 1.37h-.002z"/>
</svg>
